svg/numeric_3_box_outline.svg

<?xml version="1.0" encoding="UTF-8"?><!DOCTYPE svg PUBLIC "-//W3C//DTD SVG 1.1//EN" "http://www.w3.org/Graphics/SVG/1.1/DTD/svg11.dtd"><svg xmlns="http://www.w3.org/2000/svg" xmlns:xlink="http://www.w3.org/1999/xlink" version="1.1" id="mdi-numeric-3-box-outline" width="24" height="24" viewBox="0 0 24 24"><path d="M15,15V13.5A1.5,1.5 0 0,0 13.5,12A1.5,1.5 0 0,0 15,10.5V9C15,7.89 14.1,7 13,7H9V9H13V11H11V13H13V15H9V17H13A2,2 0 0,0 15,15M19,19H5V5H19M19,3H5A2,2 0 0,0 3,5V19A2,2 0 0,0 5,21H19A2,2 0 0,0 21,19V5A2,2 0 0,0 19,3Z" /></svg>

<svg xmlns="http://www.w3.org/2000/svg" viewBox="0 0 24 24"><path d="M15 15v-1.5a1.5 1.5 0 0 0-1.5-1.5 1.5 1.5 0 0 0 1.5-1.5V9a2 2 0 0 0-2-2H9v2h4v2h-2v2h2v2H9v2h4a2 2 0 0 0 2-2m4 4H5V5h14m0-2H5a2 2 0 0 0-2 2v14a2 2 0 0 0 2 2h14a2 2 0 0 0 2-2V5a2 2 0 0 0-2-2"/></svg>
